icons/desktop/16/svg/extension-16.svg

<svg width="16" height="16" viewBox="0 0 16 16" fill="none" xmlns="http://www.w3.org/2000/svg">
<path fill-rule="evenodd" clip-rule="evenodd" d="M8.625 0.000976562C10.0052 0.000976562 11.125 1.12076 11.125 2.50098V3.10352C11.5967 3.13984 12.0847 3.1868 12.5879 3.24707C13.9711 3.41306 14.9998 4.59959 15 5.97852V12.0244C14.9998 13.4358 13.936 14.593 12.5547 14.7578C11.3332 14.904 9.97442 15 8.5 15C7.44799 15 6.26364 14.9514 4.97363 14.8174L4.41406 14.7549C3.03338 14.5878 2.00024 13.4044 2 12.0225V10.751C2 10.3368 2.33579 10.001 2.75 10.001H3.90723C4.46692 10.0009 4.91276 9.61933 4.98535 9.1748L4.99805 9.05762C5.02805 8.47548 4.56967 8.00098 4 8.00098H2.75C2.33579 8.00098 2 7.66519 2 7.25098V5.97656C2.0002 4.60814 3.00892 3.41729 4.39258 3.24902C4.86607 3.19125 5.36092 3.1421 5.875 3.10254V2.50098C5.875 1.12076 6.99479 0.000976562 8.375 0.000976562H8.625ZM8.375 1.50098C7.82321 1.50098 7.375 1.94919 7.375 2.50098V3.80371C7.375 4.20162 7.06425 4.53046 6.66699 4.55273C5.93035 4.59377 5.23059 4.6582 4.57422 4.73828C3.96828 4.81211 3.5002 5.34144 3.5 5.97656V6.50098H4C5.51848 6.50098 6.71978 7.85539 6.4668 9.41504C6.25921 10.6902 5.09119 11.5009 3.90723 11.501H3.5V12.0225C3.50024 12.654 3.9749 13.1906 4.59375 13.2656C6.03549 13.4396 7.35036 13.5 8.5 13.5C9.9094 13.5 11.2086 13.4084 12.377 13.2686L12.4961 13.248C13.0811 13.1235 13.4998 12.6172 13.5 12.0244V5.97852C13.4998 5.34584 13.0256 4.8103 12.4092 4.73633C11.683 4.64936 10.9899 4.59087 10.333 4.55371C9.93588 4.53125 9.625 4.20245 9.625 3.80469V2.50098C9.625 1.94919 9.17679 1.50098 8.625 1.50098H8.375Z" fill="black"/>
</svg>

<!-- This Source Code Form is subject to the terms of the Mozilla Public
   - License, v. 2.0. If a copy of the MPL was not distributed with this
   - file, You can obtain one at http://mozilla.org/MPL/2.0/. -->
<svg xmlns="http://www.w3.org/2000/svg" width="16" height="16" fill="context-fill" fill-opacity="context-fill-opacity" viewBox="0 0 16 16">
    <path fill-rule="evenodd" d="M8.625.001a2.5 2.5 0 0 1 2.5 2.5v.603q.708.054 1.463.143A2.75 2.75 0 0 1 15 5.98v6.045a2.76 2.76 0 0 1-2.445 2.734 34 34 0 0 1-7.581.06l-.56-.063A2.755 2.755 0 0 1 2 12.023V10.75a.75.75 0 0 1 .75-.75h1.157c.56 0 1.006-.382 1.078-.826l.013-.117A1 1 0 0 0 4 8H2.75a.75.75 0 0 1-.75-.75V5.977c0-1.369 1.009-2.56 2.393-2.728q.71-.087 1.482-.146V2.5a2.5 2.5 0 0 1 2.5-2.5zm-.25 1.5a1 1 0 0 0-1 1v1.303a.75.75 0 0 1-.708.749c-.737.04-1.436.105-2.093.185A1.24 1.24 0 0 0 3.5 5.977V6.5H4a2.5 2.5 0 0 1 2.467 2.914c-.208 1.275-1.376 2.086-2.56 2.086H3.5v.522c0 .631.475 1.168 1.094 1.243a32.6 32.6 0 0 0 7.783.003l.12-.021a1.255 1.255 0 0 0 1.003-1.224V5.98c0-.633-.474-1.169-1.09-1.243a33 33 0 0 0-2.077-.182.75.75 0 0 1-.708-.75V2.502a1 1 0 0 0-1-1z" clip-rule="evenodd" />
</svg>
